X:1
T:I love Nae A Lassie But Ane'
M:6/8
L:1/8
Q:80
C:M.K. Brennan
S:March
K:HP
|: f|
{g}B3/2c/2{e}B{gfg}f2{g}f|
{gef}ef/2e{gcd}c3|
{g}A3/2B/2c{e}B3/2c/2e|  !
{gfg}f2{g}f{gef}e3/2f/2e| |
{gcd}c3/2e/2f{ag}a3|
{g}a3/2f/2d{gef}ecA|  !
{gBd}B3{gcd}c3/2B/2{e}A|
{d}B3/2c/2e{gfg}f2:| |:
a|  !
{g}a3/2f/2d{gef}ecA|
{gBd}B3{gcd}c3/2B/2A|
{d}B3{g}A3/2B/2c|  !
{Gdc}d3/2e/2f{ag}a2{g}a| |
{gfg}f3/2a/2d{gcd}c3/2e/2A|
{gBd}Bcd{gef}e3|  !
{g}e3/2a/2f{gef}ecA|
{gBd}B3/2c/2A{e}B2:|

